images/Shape.svg

<svg width="176" height="35" viewBox="0 0 176 35" fill="none" xmlns="http://www.w3.org/2000/svg">
<path d="M0.728655 19.3056C2.19019 15.4548 7.67097 12.4865 10.2287 11.4837C21.921 6.67039 40.7383 4.26347 48.594 5.46693C56.4498 6.67039 47.8633 9.07692 40.3729 11.4836C32.8825 13.8904 38.3633 15.0937 45.1229 13.8904C51.8825 12.687 65.9498 11.4836 78.0075 10.882C90.0652 10.2803 77.8248 9.07692 65.9498 9.07692C54.0748 9.07692 54.2575 6.67029 58.4594 5.46693C62.6614 4.26357 72.1614 -0.549874 83.3056 0.0518062C94.4498 0.653487 120.758 1.85685 132.084 6.06861C143.411 10.2804 166.796 21.7123 172.46 25.3224C178.123 28.9325 177.392 39.161 167.344 33.1442C157.296 27.1274 136.469 16.2972 90.796 14.4921C45.1229 12.6871 10.4113 22.9157 6.75748 27.1274C3.10363 31.3392 0.545936 31.3392 2.00748 27.7291C3.46902 24.119 3.83443 23.5174 2.37289 24.7207C0.911348 25.9241 -1.09827 24.119 0.728655 19.3056Z" fill="#FF733B"/>
</svg>

<svg xmlns="http://www.w3.org/2000/svg" width="176" height="35" fill="none"><path fill="#FF733B" d="M.729 19.306c1.461-3.851 6.942-6.82 9.5-7.822 11.692-4.814 30.51-7.22 38.365-6.017s-.73 3.61-8.221 6.017c-7.49 2.406-2.01 3.61 4.75 2.406s20.827-2.406 32.884-3.008c12.058-.602-.182-1.805-12.057-1.805s-11.693-2.407-7.49-3.61C62.66 4.264 72.16-.55 83.305.052c11.144.601 37.452 1.805 48.778 6.017 11.327 4.211 34.712 15.643 40.376 19.253s4.932 13.839-5.116 7.822-30.875-16.847-76.548-18.652-80.385 8.424-84.039 12.635-6.211 4.212-4.75.602 1.827-4.212.366-3.008C.91 25.924-1.098 24.119.729 19.306"/></svg>
